X: 2337
M: C
L: 1/8
K: F
(AB) |\
c=BcA FAcf | fege c2(AB) | cAdc BGcB | AFBG FEDC |
c=BcA FAcf | fege cegb | (ba)(ag) (gf)(fe) | g2f2f2 :|
|: (EF) |\
c=BcA FAcf | fege cegb | (ba)(ag) (gf)(fe) | g2f2f2 :|



